X: 26558
T: Mick Carr's
R: strathspey
M: 4/4
K: Dmajor
[A,2F2][A,F][A,D] [G,G][G,A][G,G][G,D]|[A,2F2][A,F][A,F] [A,G][A,E][CE][A,E]|[A,2F2][A,F][A,D] [G,2G2]FG|Addc dBAG|
[A,2F2][A,F][A,D] [G,G][G,A][G,G][G,D]|[A,2F2][A,F][A,F] [A,G][A,E][CE][A,E]|[A,2F2][A,F][A,D] [G,2G2]FG|Addc dfed||

